!!!COM:	Josquin des Pres?
**kern	**kern
*part2	*part1
*staff2	*staff1
*clefGv2	*clefG2
*k[]	*k[]
*M3/1	*M3/1
=1-	=1-
0.c	0cc
.	1cc
=2	=2
0e	1cc
.	2b
.	2g
1f	2a
.	4g
.	4f
=3	=3
0g	0e
1c	1e
=4	=4
2B	[0.g
2c	.
2G	.
2.c	.
4B	.
2c	.
=5	=5
2G	1g]
1c	.
.	1g
1g	.
.	1c
2e	.
=6	=6
2d	2B
2e	2c
1c	2e
.	1d
2B	.
[2c	2c
=7	=7
2c]	1g
2e	.
2d	2f
2c	2g
1g	2b
.	[2a
=8	=8
2f	2a]
2g	2g
2e	1cc
1d	.
.	2b
[2c	2cc
=9	=9
2c]	2ee
2B	1dd
1c	.
.	1cc
1d	.
.	2b
=10	=10
[0.c	2a
.	2.cc
.	4b
.	2g
.	2a
.	4g
.	4f
=11	=11
0c]	0e
1c	1e
=12	=12
4d	1f
4c	.
4B	.
4A	.
2G	2e
1c	2c
.	1d
2B	.
=13	=13
2.c	2c
.	2.g
4B	.
2c	.
.	4f
2G	2g
2c	2e
2B	2d
=14	=14
2G	2.g
2.c	.
.	4f
.	4e
4d	4d
2e	2c
1c	2r
.	[2cc
=15	=15
2.f	4cc]
.	4b
.	2cc
4e	.
2f	2a
2d	2.dd
2.g	.
.	4cc
.	2dd
4f	.
=16	=16
2g	2b
2e	2g
2c	2.cc
2.f	.
.	4b
.	4a
4e	4g
4d	[2a
4c	.
=17	=17
1d	2a]
.	2.d
2.G	.
.	4c
.	2d
4F	.
2G	2e
2A	2f
=18	=18
2B	2d
2G	2.g
2.c	.
.	4f
.	2g
4B	.
2c	2a
2d	2b
=19	=19
2e	2g
2c	2.cc
2.f	.
.	4b
.	2cc
4e	.
2f	2dd
2g	2ee
=20	=20
2a	2cc
2f	2.dd
2g	.
.	4g
2e	2g
1d	2a
.	2b
=21	=21
1c	2cc
.	2.a
2d	.
.	4d
2B	2d
1A	2e
.	2f
=22	=22
3%2G	2.g
3c	.
.	4a
3d	2b
3%2e	.
.	2.cc
3%2f	.
.	4b
.	4a
3e	.
.	4g
=23	=23
3%2d	2b
.	2.a
3c	.
3d	.
.	4g
3%2B	.
.	1g
3c	.
3%2A	.
.	2f
=24	=24
2G	1g
1c	.
.	2r
2e	1cc
1d	.
.	2b
=25	=25
2c	2cc
2.g	2ee
.	2.dd
4f	.
2.d	.
.	4cc
.	2a
4c	.
[2e-X	2g
=26	=26
4e-]	2.b-X
4d	.
4B	.
4c	4a
2d	2f
2r	2.g
4G	.
4A	4f
2B	2d
=27	=27
2c	2e
2.d	2.f
4c	4e
1c	2c
.	1d
2B	.
=28	=28
0.c	0.c
==	==
*-	*-
